flaticon/constructions/door.svg

<svg xmlns="http://www.w3.org/2000/svg" width="32" height="32" viewBox="0 0 24 24">
    <path d="M 22.800781 23.199219 L 20.398438 23.199219 L 20.398438 0.398438 C 20.398438 0.160156 20.238281 0 20 0 L 4 0 C 3.761719 0 3.601562 0.160156 3.601562 0.398438 L 3.601562 23.199219 L 1.199219 23.199219 C 0.960938 23.199219 0.800781 23.359375 0.800781 23.601562 C 0.800781 23.839844 0.960938 24 1.199219 24 L 22.800781 24 C 23.039062 24 23.199219 23.839844 23.199219 23.601562 C 23.199219 23.359375 23.039062 23.199219 22.800781 23.199219 Z M 6 23.199219 L 6 2.398438 L 18 2.398438 L 18 23.199219 Z M 18.800781 23.199219 L 18.800781 2 C 18.800781 1.761719 18.640625 1.601562 18.398438 1.601562 L 5.601562 1.601562 C 5.359375 1.601562 5.199219 1.761719 5.199219 2 L 5.199219 23.199219 L 4.398438 23.199219 L 4.398438 0.800781 L 19.601562 0.800781 L 19.601562 23.199219 Z M 18.800781 23.199219"/>
    <path d="M 16.800781 11.601562 L 15.199219 11.601562 C 14.960938 11.601562 14.800781 11.761719 14.800781 12 L 14.800781 12.398438 L 14 12.398438 C 13.761719 12.398438 13.601562 12.558594 13.601562 12.800781 C 13.601562 13.039062 13.761719 13.199219 14 13.199219 L 14.800781 13.199219 L 14.800781 13.601562 C 14.800781 13.839844 14.960938 14 15.199219 14 L 16.800781 14 C 17.039062 14 17.199219 13.839844 17.199219 13.601562 L 17.199219 12 C 17.199219 11.761719 17.039062 11.601562 16.800781 11.601562 Z M 16.398438 13.199219 L 15.601562 13.199219 L 15.601562 12.398438 L 16.398438 12.398438 Z M 16.398438 13.199219"/>
</svg>

<svg xmlns="http://www.w3.org/2000/svg" width="32" height="32" viewBox="0 0 24 24">
    <path d="M22.8 23.2h-2.402V.397C20.398.16 20.238 0 20 0H4c-.238 0-.398.16-.398.398V23.2H1.199c-.238 0-.398.16-.398.403 0 .238.16.398.398.398h21.602c.238 0 .398-.16.398-.398 0-.243-.16-.403-.398-.403zM6 23.2V2.397h12V23.2zm12.8 0V2c0-.238-.16-.398-.402-.398H5.602c-.243 0-.403.16-.403.398v21.2h-.8V.8h15.203v22.4zm0 0"/>
    <path d="M16.8 11.602h-1.6c-.24 0-.4.16-.4.398v.398H14c-.238 0-.398.16-.398.403 0 .238.16.398.398.398h.8v.403c0 .238.16.398.4.398h1.6c.24 0 .4-.16.4-.398V12c0-.238-.16-.398-.4-.398zm-.402 1.597h-.796v-.8h.796zm0 0"/>
</svg>
